Develop Presets/TangoPaparazzo Color/Evening Blue-Red details.lrtemplate
s = {
	id = "E1881A99-3D67-4216-9960-FE996E881D53",
	internalName = "Evening Blue/Red details",
	title = "Evening Blue/Red details",
	type = "Develop",
	value = {
		settings = {
			Blacks2012 = -28,
			BlueHue = 0,
			BlueSaturation = 0,
			CameraProfile = "Embedded",
			Clarity2012 = 28,
			Contrast2012 = 0,
			ConvertToGrayscale = false,
			EnableCalibration = true,
			EnableColorAdjustments = true,
			EnableDetail = true,
			EnableEffects = true,
			EnableGradientBasedCorrections = true,
			EnableSplitToning = true,
			Exposure2012 = 0,
			GrainAmount = 29,
			GrainFrequency = 50,
			GrainSize = 25,
			GreenHue = 0,
			GreenSaturation = 0,
			Highlights2012 = 0,
			HueAdjustmentAqua = 0,
			HueAdjustmentBlue = 0,
			HueAdjustmentGreen = 0,
			HueAdjustmentMagenta = 0,
			HueAdjustmentOrange = 0,
			HueAdjustmentPurple = 0,
			HueAdjustmentRed = 0,
			HueAdjustmentYellow = 0,
			LuminanceAdjustmentAqua = 0,
			LuminanceAdjustmentBlue = 0,
			LuminanceAdjustmentGreen = 0,
			LuminanceAdjustmentMagenta = 0,
			LuminanceAdjustmentOrange = 0,
			LuminanceAdjustmentPurple = 0,
			LuminanceAdjustmentRed = 0,
			LuminanceAdjustmentYellow = 0,
			PostCropVignetteAmount = -24,
			PostCropVignetteFeather = 50,
			PostCropVignetteHighlightContrast = 0,
			PostCropVignetteMidpoint = 50,
			PostCropVignetteRoundness = 0,
			PostCropVignetteStyle = 1,
			ProcessVersion = "6.7",
			RedHue = 0,
			RedSaturation = 0,
			Saturation = 0,
			SaturationAdjustmentAqua = -64,
			SaturationAdjustmentBlue = -64,
			SaturationAdjustmentGreen = -62,
			SaturationAdjustmentMagenta = -67,
			SaturationAdjustmentOrange = 31,
			SaturationAdjustmentPurple = -67,
			SaturationAdjustmentRed = 27,
			SaturationAdjustmentYellow = -64,
			ShadowTint = 0,
			Shadows2012 = 53,
			SharpenDetail = 25,
			SharpenEdgeMasking = 0,
			SharpenRadius = 1,
			Sharpness = 0,
			SplitToningBalance = 0,
			SplitToningHighlightHue = 49,
			SplitToningHighlightSaturation = 73,
			SplitToningShadowHue = 227,
			SplitToningShadowSaturation = 49,
			Vibrance = 0,
			WhiteBalance = "As Shot",
			Whites2012 = 0,
			orientation = "AB",
		},
		uuid = "B2B88152-6113-4E71-809D-2B130AF83687",
	},
	version = 0,
}
