Develop Presets/TangoPaparazzo B&W/B-W Sieff 2.lrtemplate
s = {
	id = "C4763B93-350E-44B9-B3D0-9137FBEAE139",
	internalName = "B/W Sieff 2",
	title = "B/W Sieff 2",
	type = "Develop",
	value = {
		settings = {
			AutoGrayscaleMix = true,
			Blacks2012 = 41,
			BlueHue = 0,
			BlueSaturation = 0,
			CameraProfile = "Embedded",
			Clarity2012 = 0,
			ColorNoiseReduction = 25,
			ColorNoiseReductionDetail = 50,
			ColorNoiseReductionSmoothness = 50,
			Contrast2012 = 47,
			ConvertToGrayscale = true,
			EnableCalibration = true,
			EnableDetail = true,
			EnableEffects = true,
			EnableGrayscaleMix = true,
			Exposure2012 = 0,
			GrainAmount = 0,
			GrainFrequency = 50,
			GrainSize = 25,
			GreenHue = 0,
			GreenSaturation = 0,
			Highlights2012 = 0,
			LuminanceNoiseReductionContrast = 0,
			LuminanceNoiseReductionDetail = 50,
			LuminanceSmoothing = 14,
			PostCropVignetteAmount = -37,
			PostCropVignetteFeather = 50,
			PostCropVignetteHighlightContrast = 0,
			PostCropVignetteMidpoint = 50,
			PostCropVignetteRoundness = 0,
			PostCropVignetteStyle = 1,
			ProcessVersion = "6.7",
			RedHue = 0,
			RedSaturation = 0,
			ShadowTint = 0,
			Shadows2012 = -4,
			Temperature = 14466,
			Tint = -150,
			WhiteBalance = "Custom",
			Whites2012 = 0,
		},
		uuid = "2CCB12A4-F765-4BF3-81B3-AF882BB1311F",
	},
	version = 0,
}
