Develop Presets/TangoPaparazzo B&W/Filtered Green.lrtemplate
s = {
	id = "3524B6A2-4492-45C2-B51D-03501771F9D9",
	internalName = "Green Filter copy",
	title = "Filtered Green",
	type = "Develop",
	value = {
		settings = {
			Blacks2012 = -7,
			BlueHue = 0,
			BlueSaturation = 0,
			CameraProfile = "Adobe Standard",
			Clarity2012 = 24,
			ColorNoiseReduction = 25,
			ColorNoiseReductionDetail = 50,
			Contrast2012 = 0,
			ConvertToGrayscale = true,
			EnableCalibration = true,
			EnableDetail = true,
			EnableEffects = true,
			EnableGrayscaleMix = true,
			EnableSplitToning = true,
			Exposure2012 = 0,
			GrainAmount = 0,
			GrainFrequency = 50,
			GrainSize = 25,
			GrayMixerAqua = 38,
			GrayMixerBlue = 0,
			GrayMixerGreen = 30,
			GrayMixerMagenta = 0,
			GrayMixerOrange = 38,
			GrayMixerPurple = 0,
			GrayMixerRed = 25,
			GrayMixerYellow = 40,
			GreenHue = 0,
			GreenSaturation = 0,
			Highlights2012 = -50,
			LuminanceNoiseReductionContrast = 0,
			LuminanceNoiseReductionDetail = 50,
			LuminanceSmoothing = 0,
			ParametricDarks = 0,
			ParametricHighlightSplit = 75,
			ParametricHighlights = 0,
			ParametricLights = 0,
			ParametricMidtoneSplit = 50,
			ParametricShadowSplit = 25,
			ParametricShadows = 0,
			PostCropVignetteAmount = 0,
			PostCropVignetteFeather = 50,
			PostCropVignetteHighlightContrast = 0,
			PostCropVignetteMidpoint = 50,
			PostCropVignetteRoundness = 0,
			PostCropVignetteStyle = 1,
			ProcessVersion = "6.7",
			RedHue = 0,
			RedSaturation = 0,
			ShadowTint = 0,
			Shadows2012 = 0,
			SharpenDetail = 25,
			SharpenEdgeMasking = 0,
			SharpenRadius = 1,
			Sharpness = 25,
			SplitToningBalance = 0,
			SplitToningHighlightHue = 0,
			SplitToningHighlightSaturation = 0,
			SplitToningShadowHue = 0,
			SplitToningShadowSaturation = 0,
			Temperature = 4708,
			Tint = -28,
			ToneCurveName2012 = "Linear",
			ToneCurvePV2012 = {
				0,
				0,
				255,
				255,
			},
			ToneCurvePV2012Blue = {
				0,
				0,
				255,
				255,
			},
			ToneCurvePV2012Green = {
				0,
				0,
				255,
				255,
			},
			ToneCurvePV2012Red = {
				0,
				0,
				255,
				255,
			},
			WhiteBalance = "Custom",
			Whites2012 = 0,
		},
		uuid = "9AE36319-806F-4BA0-B365-B64C8A2419C7",
	},
	version = 0,
}
