Develop Presets/TangoPaparazzo B&W/Test FilmCartoon.lrtemplate
s = {
	id = "B607C07D-9BB3-486F-BAC9-A99C460FC1AD",
	internalName = "Test FilmCartoon",
	title = "Test FilmCartoon",
	type = "Develop",
	value = {
		settings = {
			Blacks2012 = -43,
			BlueHue = 0,
			BlueSaturation = 0,
			CameraProfile = "Embedded",
			Clarity2012 = 62,
			Contrast2012 = 43,
			ConvertToGrayscale = true,
			EnableCalibration = true,
			EnableDetail = true,
			EnableEffects = true,
			EnableGradientBasedCorrections = true,
			EnableGrayscaleMix = true,
			EnableSplitToning = true,
			Exposure2012 = 0,
			GradientBasedCorrections = {
				{
					CorrectionActive = true,
					CorrectionAmount = 1,
					CorrectionID = "9B69A69F-BCE4-42C7-8249-F6FB860A4629",
					CorrectionMasks = {
						{
							FullX = 0.728499,
							FullY = 0.809899,
							MaskID = "262AB9E1-0B26-4368-B019-C8BEDA7E3BD6",
							MaskValue = 1,
							What = "Mask/Gradient",
							ZeroX = 0.657673,
							ZeroY = 0.654668,
						},
					},
					CorrectionReferenceX = 0.693086,
					CorrectionReferenceY = 0.732284,
					LocalBrightness = 0,
					LocalClarity = 0,
					LocalClarity2012 = 0,
					LocalContrast = 0,
					LocalContrast2012 = 0,
					LocalDefringe = 0,
					LocalExposure = 0,
					LocalExposure2012 = 0.26725,
					LocalHighlights2012 = 0,
					LocalLuminanceNoise = 0,
					LocalMoire = 0,
					LocalSaturation = 0,
					LocalShadows2012 = 0,
					LocalSharpness = 0,
					LocalTemperature = 0,
					LocalTint = 0,
					LocalToningHue = 240,
					LocalToningSaturation = 0,
					What = "Correction",
				},
				{
					CorrectionActive = true,
					CorrectionAmount = 1,
					CorrectionID = "191125AC-0661-471C-8415-EAB18462BD40",
					CorrectionMasks = {
						{
							FullX = 0.635751,
							FullY = 0.676041,
							MaskID = "F4449775-99E1-4A1A-8E6C-8D779FEFBCAF",
							MaskValue = 1,
							What = "Mask/Gradient",
							ZeroX = 0.671164,
							ZeroY = 0.739033,
						},
					},
					CorrectionReferenceX = 0.653458,
					CorrectionReferenceY = 0.707537,
					LocalBrightness = 0,
					LocalClarity = 0,
					LocalClarity2012 = 0,
					LocalContrast = 0,
					LocalContrast2012 = 0,
					LocalDefringe = 0,
					LocalExposure = 0,
					LocalExposure2012 = 0.1485,
					LocalHighlights2012 = 0,
					LocalLuminanceNoise = 0,
					LocalMoire = 0,
					LocalSaturation = 0,
					LocalShadows2012 = 0,
					LocalSharpness = 0,
					LocalTemperature = 0,
					LocalTint = 0,
					LocalToningHue = 240,
					LocalToningSaturation = 0,
					What = "Correction",
				},
				{
					CorrectionActive = true,
					CorrectionAmount = 1,
					CorrectionID = "44403442-5CD4-496C-BCC3-12C7D408E361",
					CorrectionMasks = {
						{
							FullX = 0.753794,
							FullY = 0.896513,
							MaskID = "DF179B18-7707-49DF-A203-B223B65F4CE0",
							MaskValue = 1,
							What = "Mask/Gradient",
							ZeroX = 0.607083,
							ZeroY = 0.834646,
						},
					},
					CorrectionReferenceX = 0.680438,
					CorrectionReferenceY = 0.865579,
					LocalBrightness = 0,
					LocalClarity = 0,
					LocalClarity2012 = -0.38614,
					LocalContrast = 0,
					LocalContrast2012 = 0,
					LocalDefringe = 0,
					LocalExposure = 0,
					LocalExposure2012 = 0.1485,
					LocalHighlights2012 = 0,
					LocalLuminanceNoise = 0,
					LocalMoire = 0,
					LocalSaturation = 0,
					LocalShadows2012 = 0,
					LocalSharpness = 0,
					LocalTemperature = 0,
					LocalTint = 0,
					LocalToningHue = 240,
					LocalToningSaturation = 0,
					What = "Correction",
				},
			},
			GrainAmount = 43,
			GrainFrequency = 50,
			GrainSize = 26,
			GrayMixerAqua = -20,
			GrayMixerBlue = 3,
			GrayMixerGreen = -21,
			GrayMixerMagenta = 6,
			GrayMixerOrange = -10,
			GrayMixerPurple = 11,
			GrayMixerRed = -2,
			GrayMixerYellow = -14,
			GreenHue = 0,
			GreenSaturation = 0,
			Highlights2012 = 0,
			PostCropVignetteAmount = -12,
			PostCropVignetteFeather = 50,
			PostCropVignetteHighlightContrast = 0,
			PostCropVignetteMidpoint = 50,
			PostCropVignetteRoundness = 0,
			PostCropVignetteStyle = 1,
			ProcessVersion = "6.7",
			RedHue = 0,
			RedSaturation = 0,
			ShadowTint = 0,
			Shadows2012 = 0,
			SharpenDetail = 25,
			SharpenEdgeMasking = 0,
			SharpenRadius = 1,
			Sharpness = 0,
			SplitToningBalance = 0,
			SplitToningHighlightHue = 0,
			SplitToningHighlightSaturation = 0,
			SplitToningShadowHue = 0,
			SplitToningShadowSaturation = 0,
			WhiteBalance = "As Shot",
			Whites2012 = 39,
			orientation = "AB",
		},
		uuid = "C6E4B3D7-CCA7-4C8E-94CB-AE8767DBBA5A",
	},
	version = 0,
}
